public/img/wm-logo.svg

<svg width="44" height="44" viewBox="0 0 44 44" fill="none" xmlns="http://www.w3.org/2000/svg">
<path d="M34.7125 31.3331V33.9538H2.89705V16.1992L7.11413 16.2006L7.11548 13.3269L0.0247904 13.3242V13.3283H0.0234375V15.1683V16.1965V36.6556H0.0247904V36.8274H34.7125V36.8288H37.5861V31.3331H34.7125Z" fill="#FF7A7F"/>
<path d="M10.8685 33.9531H2.89844V36.8484H10.8685V33.9531Z" fill="#FFC8DC"/>
<path d="M2.89844 36.8491L2.89844 28.8789H0.00317574L0.00317574 36.8491H2.89844Z" fill="#A3BEDC"/>
<path d="M2.89844 28.8783L2.89844 20.9082H0.00317574L0.00317574 28.8783H2.89844Z" fill="#56B7B5"/>
<path d="M18.7982 33.9531H10.8281V36.8484H18.7982V33.9531Z" fill="#FF9852"/>
<path d="M26.7904 33.9531H18.8203V36.8484H26.7904V33.9531Z" fill="#98E1D0"/>
<path d="M34.7592 33.9531H26.7891V36.8484H34.7592V33.9531Z" fill="#8075B3"/>
<path d="M37.5859 36.8486V29.9824H34.6907V36.8486H37.5859Z" fill="#8075B3"/>
<path d="M6.44516 30.6562L44.0078 30.6562L44.0078 7.15305L6.44516 7.15305L6.44516 30.6562Z" fill="#98E1D0"/>
<path d="M11.646 20.7196H14.1706C14.4804 20.7196 14.7307 20.4693 14.7307 20.1595V17.6363C14.7307 17.3265 14.4804 17.0762 14.1706 17.0762H11.646C11.3362 17.0762 11.0859 17.3265 11.0859 17.6363V20.1609C11.0859 20.4693 11.3362 20.7196 11.646 20.7196Z" fill="white"/>
<path d="M25.2251 24.833C28.4559 24.833 31.0751 22.2138 31.0751 18.9829C31.0751 15.752 28.4559 13.1328 25.2251 13.1328C21.9942 13.1328 19.375 15.752 19.375 18.9829C19.375 22.2138 21.9942 24.833 25.2251 24.833Z" fill="white"/>
<path d="M36.2789 20.7196H38.8034C39.1132 20.7196 39.3635 20.4693 39.3635 20.1595V17.6363C39.3635 17.3265 39.1132 17.0762 38.8034 17.0762H36.2789C35.969 17.0762 35.7188 17.3265 35.7188 17.6363V20.1609C35.7188 20.4693 35.969 20.7196 36.2789 20.7196Z" fill="white"/>
</svg>

<svg xmlns="http://www.w3.org/2000/svg" width="44" height="44" fill="none"><path fill="#FF7A7F" d="M34.712 31.333v2.62H2.897V16.2l4.217.002.001-2.874-7.09-.003v.004H.023v23.328h.002v.171h34.688v.002h2.873v-5.496h-2.873Z"/><path fill="#FFC8DC" d="M10.868 33.953h-7.97v2.895h7.97v-2.895Z"/><path fill="#A3BEDC" d="M2.898 36.85v-7.971H.003v7.97h2.895Z"/><path fill="#56B7B5" d="M2.898 28.878v-7.97H.003v7.97h2.895Z"/><path fill="#FF9852" d="M18.798 33.953h-7.97v2.895h7.97v-2.895Z"/><path fill="#98E1D0" d="M26.79 33.953h-7.97v2.895h7.97v-2.895Z"/><path fill="#8075B3" d="M34.76 33.953h-7.97v2.895h7.97v-2.895Z"/><path fill="#8075B3" d="M37.586 36.849v-6.867H34.69v6.867h2.895Z"/><path fill="#98E1D0" d="M6.445 30.656h37.563V7.153H6.445v23.503Z"/><path fill="#fff" d="M11.646 20.72h2.525c.31 0 .56-.25.56-.56v-2.524a.56.56 0 0 0-.56-.56h-2.525a.56.56 0 0 0-.56.56v2.525c0 .308.25.559.56.559ZM25.225 24.833a5.85 5.85 0 1 0 0-11.7 5.85 5.85 0 0 0 0 11.7ZM36.279 20.72h2.524c.31 0 .56-.25.56-.56v-2.524a.56.56 0 0 0-.56-.56H36.28a.56.56 0 0 0-.56.56v2.525c0 .308.25.559.56.559Z"/></svg>
